X: 9
T:All Night in the Sugar Bush
R:jig
C:Bruce Osborne  --  Apr.20 1997
Z:abc by bosborne@kos.net
M:6/8
L:1/8
K:F
AG|FEF CA,C|FAc dcA|FAc agf|e3 bge|\
ceg bge|ege bge|edc BA^G|A3 A2 G|\
FEF CA,C|FAc dcA|FAc agf|d3 d2 e|\
fgf fed|cdc cBA|edc BAG|F4||\
AG|FAF AcA|dcA F2 A|cdc cAF|E3 E2 D|\
C_C=C EDE|GFG e2 d|cdc BA^G|A3 A2 G|\
FGF AcA|dcA F2 A|cfg agf|d3 d2 e|\
fgf fed|cdc cBA|edc BAG|F4||
